src/assets/img/svg/http.svg

<?xml version="1.0" encoding="UTF-8"?>
<svg width="116px" height="116px" viewBox="0 0 116 116" version="1.1" xmlns="http://www.w3.org/2000/svg" xmlns:xlink="http://www.w3.org/1999/xlink">
    <!-- Generator: Sketch 61.2 (89653) - https://sketch.com -->
    <title>icon-http-big</title>
    <desc>Created with Sketch.</desc>
    <g id="icon-http-big" stroke="none" stroke-width="1" fill="none" fill-rule="evenodd">
        <g id="Group-15" transform="translate(2.000000, 2.000000)">
            <circle id="Oval" stroke="#AF53FF" stroke-width="2" fill-opacity="0" fill="#FFFFFF" cx="56" cy="56" r="55"></circle>
            <path d="M56,104 L56,102 C81.0706092,102 101.456852,81.9438427 101.989326,57.0009303 L103.98977,57.0009303 C103.456917,83.0485315 82.1751971,104 56,104 Z M56,8 L56,10 C30.5949015,10 10,30.5949015 10,56 C10,56.3344893 10.0035701,56.6681447 10.0106743,57.0009826 L8.01022988,57.0009826 C8.00342099,56.6681428 8,56.3344709 8,56 C8,29.490332 29.490332,8 56,8 Z" id="Shape" fill="#AF53FF"></path>
            <path d="M23.6175,68 L23.6175,58.31 L36.7575,58.31 L36.7575,68 L38.9475,68 L38.9475,47 L36.7575,47 L36.7575,56.36 L23.6175,56.36 L23.6175,47 L21.3975,47 L21.3975,68 L23.6175,68 Z M50.68125,68 L50.68125,48.92 L58.06125,48.92 L58.06125,47 L41.08125,47 L41.08125,48.92 L48.46125,48.92 L48.46125,68 L50.68125,68 Z M66.795,68 L66.795,48.92 L74.175,48.92 L74.175,47 L57.195,47 L57.195,48.92 L64.575,48.92 L64.575,68 L66.795,68 Z M78.52875,68 L78.52875,61.37 L84.16875,61.37 C86.84875,61.37 88.94875,60.735 90.46875,59.465 C91.98875,58.195 92.74875,56.44 92.74875,54.2 C92.74875,51.96 91.98875,50.2 90.46875,48.92 C88.94875,47.64 86.84875,47 84.16875,47 L76.30875,47 L76.30875,68 L78.52875,68 Z M78.52875,59.42 L78.52875,48.92 L84.10875,48.92 C86.18875,48.92 87.77875,49.375 88.87875,50.285 C89.97875,51.195 90.52875,52.5 90.52875,54.2 C90.52875,55.86 89.97875,57.145 88.87875,58.055 C87.77875,58.965 86.18875,59.42 84.10875,59.42 L78.52875,59.42 Z" id="HTTP" fill="#AF53FF" fill-rule="nonzero"></path>
        </g>
    </g>
</svg>

<svg xmlns="http://www.w3.org/2000/svg" width="116" height="116" viewBox="0 0 116 116">
    <g fill="none" fill-rule="evenodd" transform="translate(2 2)">
        <circle cx="56" cy="56" r="55" fill="#FFF" fill-opacity="0" stroke="#AF53FF" stroke-width="2"/>
        <path fill="#FFF" fill-opacity="0" stroke="#AF53FF" stroke-width="3" d="M57.5 102.476V102l-.49.49c-.335.006-.672.01-1.01.01l.5.5-.5.5c.33 0 .66-.003.99-.01l.51.51v-.523c24.671-.766 44.66-20.364 45.935-44.976h.555l-.53-.54c.013-.309.022-.618.029-.928l-.479.468-.52-.53c-.007.358-.019.716-.034 1.073l-.467.457h.445C101.16 82.557 81.62 101.71 57.5 102.476zm-3-92.952V10l.49-.49c.335-.006.672-.01 1.01-.01l-.5-.5.5-.5c-.33 0-.66.003-.99.01L54.5 8v.523C29.126 9.31 8.765 29.998 8.503 55.501H8.01v1.5l.5-.01.001.042 1.5-.032v-1.5h-.508c.262-24.95 20.175-45.19 44.997-45.977z"/>
        <path fill="#AF53FF" fill-rule="nonzero" d="M23.617 68v-9.69h13.14V68h2.19V47h-2.19v9.36h-13.14V47h-2.22v21h2.22zm27.064 0V48.92h7.38V47h-16.98v1.92h7.38V68h2.22zm16.114 0V48.92h7.38V47h-16.98v1.92h7.38V68h2.22zm11.734 0v-6.63h5.64c2.68 0 4.78-.635 6.3-1.905 1.52-1.27 2.28-3.025 2.28-5.265 0-2.24-.76-4-2.28-5.28-1.52-1.28-3.62-1.92-6.3-1.92h-7.86v21h2.22zm0-8.58v-10.5h5.58c2.08 0 3.67.455 4.77 1.365 1.1.91 1.65 2.215 1.65 3.915 0 1.66-.55 2.945-1.65 3.855-1.1.91-2.69 1.365-4.77 1.365h-5.58z"/>
    </g>
</svg>
